X:193
T:March des Cabriettaires
R:polka 32 march
B:English Choice, Nick Barber, pub mally.com
M:2/2
L:1/8
Q:1/4=150
K:C
Gcd|:"C"e2e2 e2"G"de|"C"c4- cGcd|
e2c2 "G"B2"C"c2|"G"d4- dGde|
f2f2 fgfe|d4- ddef|
"G"g2f2 "C"e2"G"d2|1
"C"c4- cGcd:|2"C"c4- c2cg||
:"C"egeg e3g|a>g"G"fe fd2f|
dfdf d3f|g>f"C"ed ec2g|
egeg e3g|a>g"G"fe fd2f|
dfdf d3f|1"G"g>f"C"ed c3g:|2
"G"g>f"C"ed c|]

